X: 10834
Q: "Not too slow."
M: C
L: 1/8
K: Bb	% and Gm
d2 |\
e3d c2(BA) | B3c ^F3B | A3B (cB)c2 | f6 e2 |\
d2d2 (ed)(cB) | (AB)c2 c3e | (de)(cB) B3A | B6 :|
(fe2)e (ed2)d | (gf)(ed) c3e | (fd)(cA) B3c | d6 |]
d3e (fd)(gf) | e3d c3e | d2(cB) B3A | HG6 |]


